!!!OTL-incipit: Siehgst as net, da kimmt er, der mit seim Zylinder
!!!ARE: Europa, Mitteleuropa, Deutschland, Ober - Franken, Koednitz
!!!SCT: V0003E
!!!TXL: @@BAR
!!!YEM: Copyright 1995, estate of Helmut Schaffrath.
**kern	**text
*ICvox	*
*M2/4	*
*k[b-]	*
*F:	*
=1	=1
{8c	Siehgst
8c	as
8d	net,
8c	da
=2	=2
4e	kimmt
4e}	er,
=3	=3
{8c	der
8c	mit
8d	seim
8c	Zy-
=4	=4
4f	-lin-
4f}	-der,
=5	=5
{8a	Der
8a	mit
8g	sein
8f	zer-
=6	=6
8f	-ris-
8e	-sna
4B-}	Frack,
=7	=7
{8f	is
8f	denn
8e	der
8d	net
=8	=8
8d	ü-
8c	-ber-
4A}	-gschnappt.
==	==
!!!AGN: Geselligkeits - Lied, Scherz
!!!ONB: ESAC (Essen Associative Code) Database: VARIANT
!!!AMT: simple duple
!!!AIN: vox
!!!EED: Helmut Schaffrath
!!!EEV: 1.0
!!!GTL: Siehgst as net, da kimmt er (Kreuzpolka)
!!!source: Heigl, U.; Liertz, M. J. et al.: Registeer un Beispielsammlung zu den Forschungsexkursionen des Instituts für Volkskunde nach Oberfranken. Maschinenschriftliches Manuskript, München 1982.
!!!page: 86
!!!ENC: Anna Maria Matuszewska
!!!EEV: 2025/04/01
*-	*-
